X:1
T:Billy the Kid
C:Ry Cooder
N:From Ry Cooder's" Into the Purple Valley" 
L:1/8
Q:1/4=228
M:4/4
K:G
G, | G,[GG,] zG, [G2G,2] [E2G,2] | [G2G,2] [GG,]G, B2 [c2D2] | [d2D2] [d2D2] [d2D2] [B2D2] | 
[G6G,6] [f2A2D2G,2] | [g2B2] [g2B2] [f2A2D2] [f2A2] | [G6G,6] [f2A2] | G,2 [g2B2D2] [f2A2D2] [g2A2] | 
[B4G,4] [D2G,2] [E2G,2] | "Vocal"[G6G,6] [B2D2G,2] | z4 [D2G,2] [E2G,2] | [G4G,4] [E2G,2] [D2G,2] | 
z8 | "D"[f2A2D2] D2 [f2A2D2] [f2A2D2] | [f6A6D6] E2 | [G2G,2] [D2G,2] [E2G,2] [G2G,2] | 
[G6G,6] G,E | G,4 [D2G,2] [B2D2G,2] | z4 z2 DB | [B2D2G,2] B2 "C"[c2E2G,2] c2 | 
"G"[d4D4G,4] [d4D4] | [g2B2D2G,2] [g2B2D2G,2] [c2E2G,2] [g2B2D2G,2] | [g2B2D2G,2] [B2D2] [g2B2G,2] [g2B2D2] | 
"D"[f2A2F2] [f2A2D2] [f2A2D2] [f2A2A,2] | G,2 g2 {C}G,2 [f2A2D2] | {G}D2 [f2d2D2] {G}D2 [f2A2D2] | {=F}^F[fAD] | 
G,2 [g3B3D3]D [f2A2] | G,2 [g2B2] [f2A2D2] [f2A2D2] | [B2D2G,2] [g3B3]D [f2A2] | 
G,2 [g2B2] [f2A2D2] [f2A2] | [B8G,8] | 


